X:247
T: Springtanz der Ditmarsen
N: A0292
O: Europa, Mitteleuropa, Deutschland
N: Souterliedekens ad Ps. 60.
R: Romanze, Ballade, Lied
M: 4/2
L: 1/4
K: D
D2 | D3CDCDE | =F4E2
E2 | D2E2D2=C2 | B,4z2
DD | A,2B,2=C2D2 | E2D=CB,2
E2 | EDE=FA2G2 | =F2ED=C2
D2 | E2D2CB,DC | D6

@@@ Tune index: 247
